assets/img/svg/nouser-fill.svg

<svg width="18" height="19" viewBox="0 0 18 19" fill="none" xmlns="http://www.w3.org/2000/svg">
<circle cx="9" cy="9.5" r="9" fill="#D10026"/>
<g clip-path="url(#clip0_275_2562)">
<path d="M11.4787 10.0134C11.4404 9.98975 11.2692 9.92778 11.1601 9.89237C10.8561 9.79204 10.6496 9.70057 10.4017 9.55598C10.0919 9.37598 10.0801 9.37008 10.0004 9.37893C9.90891 9.39073 9.83219 9.44975 9.79383 9.53237C9.75842 9.61499 9.76727 9.70352 9.82038 9.77434C9.93251 9.93073 10.6378 10.2701 11.0509 10.394C11.166 10.4294 11.2486 10.4648 11.2869 10.5032C11.3814 10.5917 11.4345 10.7156 11.4581 10.9193C11.4758 11.0697 11.4669 11.4917 11.4581 11.533C11.4079 11.592 10.9476 11.7868 10.5168 11.8989C10.0476 12.0229 9.61973 12.076 9.08858 12.076C9.08563 12.076 9.08268 12.076 9.07973 12.076C8.46006 12.076 7.92006 11.9934 7.38301 11.8163C7.05547 11.713 6.75743 11.5743 6.72792 11.5507C6.71317 11.4976 6.70432 11.0727 6.72202 10.9222C6.74858 10.7127 6.81645 10.5622 6.91973 10.4884C6.93743 10.4766 6.9994 10.4442 7.20891 10.3734C7.35055 10.3261 7.54235 10.2524 7.63973 10.2081C7.8935 10.093 8.28596 9.88352 8.36268 9.78024C8.41579 9.70942 8.42465 9.61794 8.38628 9.53532C8.34792 9.44975 8.26825 9.39368 8.17383 9.38188C8.09415 9.37598 8.06169 9.39368 7.89645 9.49106C7.58956 9.67696 7.26202 9.82155 6.97874 9.90417C6.72792 9.97499 6.55678 10.0812 6.4417 10.2376C6.26465 10.4737 6.19678 10.7422 6.19678 11.1996C6.19678 11.595 6.23809 11.8045 6.33251 11.8989C6.43284 11.9993 6.94038 12.2206 7.26792 12.3268C7.83448 12.5068 8.46891 12.5983 9.09743 12.5983C9.72891 12.5983 10.3604 12.5068 10.9181 12.3268C11.2427 12.2206 11.7768 11.9993 11.8653 11.8901C11.9479 11.7927 11.9833 11.5861 11.9833 11.2025C11.9863 10.5711 11.8387 10.2288 11.4787 10.0134Z" fill="white"/>
<path d="M7.92876 8.93925C8.00548 9.05139 8.16187 9.21368 8.26515 9.2845C8.49236 9.4468 8.79039 9.52942 9.09138 9.52942C9.27728 9.52942 9.46318 9.49696 9.63728 9.43204C9.90285 9.33171 10.1419 9.1222 10.3101 8.84483C10.4222 8.65598 10.5284 8.32843 10.5697 8.0304C10.5963 7.83565 10.5933 7.26614 10.5638 7.08024C10.4488 6.40155 10.0386 5.96188 9.40416 5.84089C9.30089 5.82024 9.03826 5.80253 8.95859 5.81434L8.814 5.83499C8.51007 5.8763 8.20613 6.02975 8.00253 6.24811C7.80187 6.46352 7.68089 6.71729 7.62187 7.05663C7.59236 7.21893 7.58056 7.71171 7.60121 7.92122C7.63958 8.31663 7.76056 8.68843 7.92876 8.93925ZM8.10876 7.56122C8.10876 7.19532 8.12646 7.06843 8.20023 6.88253C8.31531 6.59925 8.53662 6.41335 8.84056 6.34843C8.89957 6.33663 8.98515 6.33073 9.07367 6.33073C9.17105 6.33073 9.26843 6.33958 9.3363 6.35434C9.74941 6.44581 9.97662 6.70253 10.0533 7.16286C10.0799 7.3163 10.0829 7.80614 10.0592 7.96548C10.0002 8.35204 9.89695 8.59696 9.71105 8.77991C9.60482 8.88614 9.52515 8.93335 9.38056 8.97761C9.30679 9.00122 9.28023 9.00417 9.09138 9.00417C8.90253 9.00417 8.87597 9.00122 8.8022 8.97761C8.43335 8.86253 8.22384 8.5645 8.12941 8.0127C8.11171 7.92122 8.1058 7.82384 8.10876 7.56122Z" fill="white"/>
</g>
<path fill-rule="evenodd" clip-rule="evenodd" d="M13.8637 9.17343C13.7709 8.13775 13.4145 7.22071 12.8093 6.46057C12.0387 5.49257 10.9422 4.86635 9.6756 4.67085C9.33223 4.61785 8.66933 4.61785 8.32595 4.67085C6.8891 4.89263 5.68686 5.6607 4.91212 6.85183C4.74633 7.10675 4.50396 7.59925 4.40766 7.87692C3.96915 9.14131 4.0552 10.5025 4.64831 11.6838C5.36963 13.1206 6.70448 14.0808 8.32595 14.3294C8.66737 14.3818 9.33214 14.382 9.6756 14.3298C10.7556 14.1658 11.6839 13.7001 12.4402 12.9431C13.1906 12.1919 13.664 11.2511 13.8216 10.1976C13.8556 9.97055 13.8806 9.36165 13.8637 9.17343ZM13.1479 10.0276C13.0841 10.5108 12.9547 10.934 12.7386 11.3652C12.6223 11.5974 12.3766 11.983 12.2503 12.1317L12.1899 12.2029L9.24315 9.25292L6.29645 6.30294L6.47173 6.16937C7.49165 5.39221 8.81291 5.12637 10.0582 5.44775C10.802 5.63974 11.4532 6.02311 12.0053 6.59414C12.2582 6.85567 12.3819 7.01325 12.5577 7.29774C12.8784 7.81676 13.088 8.41653 13.1574 9.01381C13.1867 9.26621 13.182 9.7691 13.1479 10.0276ZM11.5265 12.8337C10.5126 13.6063 9.18533 13.8733 7.94733 13.5538C6.93964 13.2937 6.06281 12.656 5.4749 11.7555C5.33452 11.5405 5.15236 11.1664 5.0611 10.9057C4.58539 9.54675 4.83003 8.04486 5.70998 6.92237L5.80916 6.79585L8.75462 9.74415C10.3746 11.3657 11.7001 12.6945 11.7001 12.697C11.7001 12.6994 11.622 12.761 11.5265 12.8337Z" fill="#F5F5F5"/>
<defs>
<clipPath id="clip0_275_2562">
<rect width="5.78951" height="6.78394" fill="white" transform="translate(6.19678 5.8114)"/>
</clipPath>
</defs>
</svg>

<svg width="18" height="19" fill="none" xmlns="http://www.w3.org/2000/svg"><circle cx="9" cy="9.5" r="9" fill="#D10026"/><g clip-path="url(#a)" fill="#fff"><path d="M11.479 10.013a2.674 2.674 0 0 0-.319-.12 3.652 3.652 0 0 1-.758-.337c-.31-.18-.322-.186-.402-.177a.266.266 0 0 0-.206.153.238.238 0 0 0 .026.242c.113.157.818.496 1.23.62.116.035.199.07.237.11.094.088.147.212.171.415.018.15.009.573 0 .614-.05.059-.51.254-.941.366-.47.124-.897.177-1.428.177h-.01a5.268 5.268 0 0 1-2.351-.525 3.9 3.9 0 0 1-.006-.629c.027-.21.094-.36.198-.434.017-.011.08-.044.289-.115a4.94 4.94 0 0 0 .43-.165c.255-.115.647-.324.724-.428a.236.236 0 0 0 .023-.245.265.265 0 0 0-.212-.153c-.08-.006-.112.012-.278.11-.306.185-.634.33-.917.412-.251.071-.422.177-.537.334-.177.236-.245.504-.245.962 0 .395.041.605.136.699.1.1.607.322.935.428.566.18 1.2.271 1.83.271.63 0 1.262-.091 1.82-.271.325-.106.859-.328.947-.437.083-.097.118-.304.118-.688.003-.63-.144-.973-.504-1.189Z"/><path d="M7.929 8.94c.076.111.233.274.336.345.227.162.525.244.826.244.186 0 .372-.032.546-.097.266-.1.505-.31.673-.587.112-.189.218-.517.26-.815a5.37 5.37 0 0 0-.006-.95c-.115-.678-.525-1.118-1.16-1.24a2.144 2.144 0 0 0-.445-.026l-.145.021a1.398 1.398 0 0 0-.811.413c-.201.216-.322.47-.381.809-.03.162-.041.655-.02.864.038.396.159.767.327 1.018Zm.18-1.379c0-.366.017-.493.091-.678a.857.857 0 0 1 .64-.535c.06-.011.145-.017.234-.017.097 0 .194.009.262.023.413.092.64.349.717.809.027.153.03.643.006.802-.059.387-.162.632-.348.815a.692.692 0 0 1-.33.198c-.074.023-.1.026-.29.026-.188 0-.215-.003-.289-.026-.369-.115-.578-.413-.673-.965a2.293 2.293 0 0 1-.02-.452Z"/></g><path fill-rule="evenodd" clip-rule="evenodd" d="M13.864 9.173c-.093-1.035-.45-1.952-1.055-2.712-.77-.968-1.867-1.595-3.133-1.79a5.748 5.748 0 0 0-1.35 0c-1.437.222-2.64.99-3.414 2.18a6.023 6.023 0 0 0-.504 1.026 4.88 4.88 0 0 0 .24 3.807c.722 1.437 2.056 2.397 3.678 2.645a5.824 5.824 0 0 0 1.35 0 4.85 4.85 0 0 0 2.764-1.386 4.857 4.857 0 0 0 1.382-2.745c.034-.227.059-.836.042-1.025Zm-.716.855a4.085 4.085 0 0 1-.41 1.337 5.16 5.16 0 0 1-.488.767l-.06.07-2.947-2.95-2.947-2.95.176-.133a4.188 4.188 0 0 1 3.586-.721 4.094 4.094 0 0 1 1.947 1.146c.253.262.377.42.553.704.32.519.53 1.119.6 1.716.029.252.024.755-.01 1.014Zm-1.621 2.806a4.194 4.194 0 0 1-3.58.72 4.217 4.217 0 0 1-2.472-1.799 4.652 4.652 0 0 1-.414-.85 4.204 4.204 0 0 1 .649-3.983l.1-.126 2.945 2.948c1.62 1.622 2.945 2.95 2.945 2.953a4.1 4.1 0 0 1-.173.137Z" fill="#F5F5F5"/><defs><clipPath id="a"><path fill="#fff" transform="translate(6.197 5.811)" d="M0 0h5.79v6.784H0z"/></clipPath></defs></svg>
